X:744050
T:Highland Cathedral (Canntaireachd)
H: Written as a pipe tune by in 1982 by the German musicians Ulrich Roever and Michael Korb. It took as its inspiration the story that King James I of Scotland gathered his clan chiefs in secret at the Highland Cathedral to pledge an end to feuding.
C: Uli Roever and Michael Korb (1982)
B:
O:Kevin Fraser
Z:Kevin Fraser
Q:1/4=60
M:4/4
L:1/8
K:HP
R:March
U: R = ///
U: r = //
U: V = !accent!
V:M gstem=up stem=down name="Melody" sname="Melody"
V:H gstem=up stem=down name="Harmony" sname="Harmony"
V:C gstem=up stem=down name="C-Harmony" sname="C-Harmony"
V:S gstem=up stem=down dyn=up stafflines=1 clef=perc middle=G name="Snare" sname="Snare"" sname="Snare"
V:B gstem=up stem=down clef=none dyn=up name="Bass"
V:T gstem=up stem=down clef=none dyn=up name="Tenor"
I:MIDI=program 110
%%MIDI gracedivider 4
I:linebreak $
% %score {M S}
%%MIDI program 109 #bagpipes
%%MIDI vol 100
%%landscape
%%scale 0.6
[V:M] A	|| "Solo Piper"{Gdc}d3{g}e/f/ {g}ed {g}Ad      | {gef}e3f   {gfg}f4   | {g}f3   {gf}g/a/  {f}gf  {gef}ed | {gef}e3f          {AGAG}A4 | $
w: en | tra he ve he a hen a | hete ve chete | che vili I vedi ve hete a | hete ve enrarrin |
[V:H] x||X4 |
[V:M]	| {gBd}B3{g}c/d/  {gdG}d{e}A {d}cd | {ag}a3{f}g {gfg}f4   | {gef}e3 {g}f/g/   {gfg}fd {g}Ad   | {gef}e3d          "Drones"{gdG}d4  || $
w: hoto ho a hadema un do a | dili vedi chete | hete che di chete a hen a | hete a hadema
[V:H] |X4 |
%%pagebreak
[V:M]	|| "Band Joins in"!segno!{gcd}c3{e}A    {gef}e3{g}c/e/  | {gfg}f3c   {GdGe}c3B | {G}A2   {g}A/B/c  {gBd}B4         | {gcd}c2 {g}c/d/e  {gBd}B4  | $
w: hoto un hete ho e | chete o emdemo o | ren hen o o hoto | hoto ho a e hoto
[V:M]	| {gcd}c3{e}A     {gef}e3{g}c/e/  | {gfg}f3c   {GdGe}c3B | {G}A2   {g}A/B/c  {gBd}B3A        | "2X w/Brass Band"!fermata!{GAG}A4           {GAG}A4 || $
w: hoto un hete ho e | chete o emdemo o | ren hen o o hoto en | raren raren 
[V:M]	|| {Gdc}d3{g}e/f/ {g}ed {g}Ad      | {gef}e3f   {gfg}f4   | {g}f3   {gf}g/a/  {f}gf  {gef}ed | {gef}e3f          {AGAG}A4 | $
w: | tra he ve he a hen a | hete ve chete | che vili I vedi ve hete a | hete ve enrarrin |
[V:M]	| {gBd}B3{g}c/d/  {gdG}d{e}A {d}cd | {ag}a3{f}g {gfg}f4   | {gef}e3 {g}f/g/   {gfg}fd {g}Ad   | {gef}e3d      "Fine"{gdG}d4!D.S.alfine!  || $
w: hoto ho a hadema un do a | dili vedi chete | hete che di chete a hen a | hete a hadema

[V:S][|:{c}A(3:2c/A/c/ {c}A(3:2c/A/c/ {c}A(3:2c/A/c/ (3:2{c}A/c/A/(3:2{A}c/A/c/ |{c}A(3:2c/A/c/ {c}A(3:2c/A/c/ {c}A(3:2c/A/c/ (3:2{c}A/c/A/(3:2{A}c/A/c/ |{c}A(3:2c/A/c/ {c}A(3:2c/A/c/ {c}A(3:2c/A/c/ (3:2{c}A/c/A/(3:2{A}c/A/c/ |{c}A(3:2c/A/c/ {c}A(3:2c/A/c/ {c}A(3:2c/A/c/ (3:2{c}A/c/A/(3:2{A}c/A/c/ :|] $
[V:S][|:{c}A(3:2c/A/c/ {c}A(3:2c/A/c/ {c}A(3:2c/A/c/ (3:2{c}A/c/A/(3:2{A}c/A/c/ |{c}A(3:2c/A/c/ {c}A(3:2c/A/c/ {c}A(3:2c/A/c/ (3:2{c}A/c/A/(3:2{A}c/A/c/ |{c}A(3:2c/A/c/ {c}A(3:2c/A/c/ {c}A(3:2c/A/c/ (3:2{c}A/c/A/(3:2{A}c/A/c/ |{c}A(3:2c/A/c/ {c}A(3:2c/A/c/ {c}A(3:2c/A/c/ (3:2{c}A/c/A/(3:2{A}c/A/c/ :|] $
[V:S][|:{c}A(3:2c/A/c/ {c}A(3:2c/A/c/ {c}A(3:2c/A/c/ (3:2{c}A/c/A/(3:2{A}c/A/c/ |{c}A(3:2c/A/c/ {c}A(3:2c/A/c/ {c}A(3:2c/A/c/ (3:2{c}A/c/A/(3:2{A}c/A/c/ |{c}A(3:2c/A/c/ {c}A(3:2c/A/c/ {c}A(3:2c/A/c/ (3:2{c}A/c/A/(3:2{A}c/A/c/ |{c}A(3:2c/A/c/ {c}A(3:2c/A/c/ {c}A(3:2c/A/c/ (3:2{c}A/c/A/(3:2{A}c/A/c/ :|] $
[V:S][|:{c}A(3:2c/A/c/ {c}A(3:2c/A/c/ {c}A(3:2c/A/c/ (3:2{c}A/c/A/(3:2{A}c/A/c/ |{c}A(3:2c/A/c/ {c}A(3:2c/A/c/ {c}A(3:2c/A/c/ (3:2{c}A/c/A/(3:2{A}c/A/c/ |{c}A(3:2c/A/c/ {c}A(3:2c/A/c/ {c}A(3:2c/A/c/ (3:2{c}A/c/A/(3:2{A}c/A/c/ |{c}A(3:2c/A/c/ {c}A(3:2c/A/c/ {c}A(3:2c/A/c/ (3:2{c}A/c/A/(3:2{A}c/A/c/ :|] $
[V:S][|:{c}A(3:2c/A/c/ {c}A(3:2c/A/c/ {c}A(3:2c/A/c/ (3:2{c}A/c/A/(3:2{A}c/A/c/ |{c}A(3:2c/A/c/ {c}A(3:2c/A/c/ {c}A(3:2c/A/c/ (3:2{c}A/c/A/(3:2{A}c/A/c/ |{c}A(3:2c/A/c/ {c}A(3:2c/A/c/ {c}A(3:2c/A/c/ (3:2{c}A/c/A/(3:2{A}c/A/c/ |{c}A(3:2c/A/c/ {c}A(3:2c/A/c/ {c}A(3:2c/A/c/ (3:2{c}A/c/A/(3:2{A}c/A/c/ :|] $
[V:B]|| "Snare Solo"Z | Z | Z | Z ||$
[V:B]|| 	Z | Z | Z | Z |$
[V:B]   	Z | Z | Z | Z ||$
[V:B]|| 	c8 | A8 | c8 | A8 | $
[V:B]	c8 | A8 | c8 | A8 || $
[V:B]|| 	c8 | A8 | c8 | A8 | $
[V:B]	c8 | A8 | c8 | A8 || $
[V:T]|| "Snare Solo"Z | Z | Z | Z ||$
[V:T]|| 	Z | Z | Z | Z |$
[V:T]   	Z | Z | Z | Z ||$
[V:T]|| 	c8 | A8 | c8 | A8 | $
[V:T]	c8 | A8 | c8 | A8 || $
[V:T]|| 	c8 | A8 | c8 | A8 | $
[V:T]	c8 | A8 | c8 | A8 || $

